X: 16308
T: Grouse On The Hill, The
R: jig
M: 6/8
K: Dmajor
A|GEF ~G2 A|Bec dBA|BAF GFG|AFD FGA|
GEF ~G2 A|Bee fed|BdB AFB|EFE {F}E:|
f|~g2 e fed|Bec dBA|gfg afd|efe ~e2 f|
~g2 e fed|Bec dBA|BdB AFB|EFE {F}E2:|

